assets/Persevering face/Flat/persevering_face_flat.svg

<svg width="32" height="32" viewBox="0 0 32 32" fill="none" xmlns="http://www.w3.org/2000/svg">
<path d="M15.9989 29.9978C25.3333 29.9978 29.9978 23.7303 29.9978 15.9989C29.9978 8.26751 25.3333 2 15.9989 2C6.66443 2 2 8.26751 2 15.9989C2 23.7303 6.66443 29.9978 15.9989 29.9978Z" fill="#FFB02E"/>
<path d="M10.0174 7.36941C9.82675 8.0733 9.49215 8.72518 8.95171 9.19985C8.4192 9.66754 7.64527 10.0001 6.5 10.0001C6.22386 10.0001 6 10.224 6 10.5001C6 10.7763 6.22386 11.0001 6.5 11.0001C7.85473 11.0001 8.87301 10.5999 9.61161 9.9512C10.3423 9.30946 10.7577 8.46133 10.9826 7.63084C11.0548 7.3643 10.8973 7.0897 10.6307 7.01751C10.3642 6.94532 10.0896 7.10287 10.0174 7.36941Z" fill="#402A32"/>
<path d="M21.9826 7.36941C22.1733 8.0733 22.5079 8.72518 23.0483 9.19985C23.5808 9.66754 24.3547 10.0001 25.5 10.0001C25.7761 10.0001 26 10.224 26 10.5001C26 10.7763 25.7761 11.0001 25.5 11.0001C24.1453 11.0001 23.127 10.5999 22.3884 9.9512C21.6577 9.30946 21.2423 8.46133 21.0174 7.63084C20.9452 7.3643 21.1027 7.0897 21.3693 7.01751C21.6358 6.94532 21.9104 7.10287 21.9826 7.36941Z" fill="#402A32"/>
<path d="M16 23.0001C14.7143 23.0001 13.9864 23.428 13.7071 23.7072C13.3166 24.0978 12.6834 24.0978 12.2929 23.7072C11.9024 23.3167 11.9024 22.6835 12.2929 22.293C13.0136 21.5723 14.2857 21.0001 16 21.0001C17.6391 21.0001 18.9814 21.5673 19.7071 22.293C20.0976 22.6835 20.0976 23.3167 19.7071 23.7072C19.3166 24.0978 18.6834 24.0978 18.2929 23.7072C18.0186 23.433 17.2276 23.0001 16 23.0001Z" fill="#402A32"/>
<path d="M8.10555 13.5529C8.35254 13.0589 8.95321 12.8587 9.44719 13.1057L13.4472 15.1057C13.786 15.2751 14 15.6213 14 16.0001C14 16.3789 13.786 16.7251 13.4472 16.8945L9.44719 18.8945C8.95321 19.1415 8.35254 18.9413 8.10555 18.4473C7.85856 17.9533 8.05878 17.3527 8.55276 17.1057L10.7639 16.0001L8.55276 14.8945C8.05878 14.6475 7.85856 14.0469 8.10555 13.5529Z" fill="#402A32"/>
<path d="M23.8945 13.5529C23.6475 13.0589 23.0468 12.8587 22.5528 13.1057L18.5528 15.1057C18.214 15.2751 18 15.6213 18 16.0001C18 16.3789 18.214 16.7251 18.5528 16.8945L22.5528 18.8945C23.0468 19.1415 23.6475 18.9413 23.8945 18.4473C24.1414 17.9533 23.9412 17.3527 23.4472 17.1057L21.2361 16.0001L23.4472 14.8945C23.9412 14.6475 24.1414 14.0469 23.8945 13.5529Z" fill="#402A32"/>
</svg>

<svg xmlns="http://www.w3.org/2000/svg" width="32" height="32" fill="none"><path fill="#FFB02E" d="M15.999 29.998c9.334 0 13.999-6.268 13.999-14 0-7.73-4.665-13.998-14-13.998C6.665 2 2 8.268 2 15.999c0 7.731 4.664 13.999 13.999 13.999Z"/><path fill="#402A32" d="M10.017 7.37c-.19.703-.525 1.355-1.065 1.83-.533.468-1.307.8-2.452.8a.5.5 0 0 0 0 1c1.355 0 2.373-.4 3.112-1.049.73-.642 1.146-1.49 1.37-2.32a.5.5 0 1 0-.965-.262ZM21.983 7.37c.19.703.525 1.355 1.065 1.83.533.468 1.307.8 2.452.8a.5.5 0 0 1 0 1c-1.355 0-2.373-.4-3.112-1.049-.73-.642-1.146-1.49-1.37-2.32a.5.5 0 1 1 .965-.262ZM16 23c-1.286 0-2.014.428-2.293.707a1 1 0 1 1-1.414-1.414C13.013 21.573 14.286 21 16 21c1.64 0 2.981.567 3.707 1.293a1 1 0 0 1-1.414 1.414C18.019 23.433 17.228 23 16 23ZM8.106 13.553a1 1 0 0 1 1.341-.447l4 2a1 1 0 0 1 0 1.789l-4 2a1 1 0 1 1-.894-1.79L10.763 16l-2.21-1.105a1 1 0 0 1-.447-1.342ZM23.895 13.553a1 1 0 0 0-1.342-.447l-4 2a1 1 0 0 0 0 1.789l4 2a1 1 0 1 0 .894-1.79L21.237 16l2.21-1.105a1 1 0 0 0 .448-1.342Z"/></svg>
